src/pos-icons/twitch.svg

<svg height="24" viewBox="0 0 24 24" width="24" xmlns="http://www.w3.org/2000/svg"><path d="m11.64 5.93h1.43v4.28h-1.43m3.93-4.28h1.43v4.28h-1.43m-8.57-8.21-3.57 3.57v12.86h4.28v3.57l3.58-3.57h2.85l6.43-6.43v-10m-1.43 9.29-2.85 2.85h-2.86l-2.5 2.5v-2.5h-3.22v-10.71h11.43z"/></svg>

<?xml version="1.0" encoding="UTF-8"?><!DOCTYPE svg PUBLIC "-//W3C//DTD SVG 1.1//EN" "http://www.w3.org/Graphics/SVG/1.1/DTD/svg11.dtd"><svg xmlns="http://www.w3.org/2000/svg" xmlns:xlink="http://www.w3.org/1999/xlink" version="1.1" id="mdi-twitch" width="24" height="24" viewBox="0 0 24 24"><path d="M11.64 5.93H13.07V10.21H11.64M15.57 5.93H17V10.21H15.57M7 2L3.43 5.57V18.43H7.71V22L11.29 18.43H14.14L20.57 12V2M19.14 11.29L16.29 14.14H13.43L10.93 16.64V14.14H7.71V3.43H19.14Z" /></svg>
